X:99
T:Have you seen my Moggy (Chilcote)
%%VWML:SBG-1-2-487-0
F:http://www.vwml.org/record/SBG/1/2/487
Z:Original Sibelius transcriptions by M. & S. Graebe
M:4/4
I:linebreak $
K:G
V:1 treble nm="P1"
V:1
 e>f ed BA z2 | d>edB AB z2 | e>f g/f/e/d/ BG z2 | AA B/A/G/F/ E4 |$ G>GGG dB z2 | A>AAc B e3 | %6
 G>ABG AB z2 | eB c/B/A/G/ E4 | %8

